X: 108
T:Just in Time. GS.108
M:2/4
L:1/8
Q:230
S:George Spencer m/s, Leeds,1831
R:Misc.
O:England
A:Leeds
H:1831
Z:vmp.Cherri Graebe
K:G major
D | GG/A/ GD | BB/c/ BG |  AcFA | G/F/G/A/ GD | GG/A/ GD | 
BB/c/ BG | AcFA | G3 :|!|: D | dd/e/ dg | BB/c/ Bd | FcDF | G/F/G/A/ GD
|
 dd/e/ dg | 
BB/c/ Bd | AcAF | G3 :||
